X: 4081
T: Bliss In Connaught
R: reel
M: 4/4
K: Gmajor
|:G2BG dBAG|AEEE c2 BA|G3B DGBD|FADF Accd|
BGEF GABE|FBTB^c de (f/g/a)|g3e dBAG|1 FDAF G2DE:|2 FDAF G2Bd||
|:g3b a3b|gabg e2dc|BABA Ecec|BABA Ddfa|
g4 a3b|gabg e2dB|AE (E/E/E) ABce|1 dBAB G2Bd:|2 dBAB G2DE||

